!! 00000] TT[WS
!!!OTL: Ertong fangshao
!!!ARE: Asia, China, Shanxi Shouyang
!! Ethnic Group: Han
!! WII, 233 (1)
!!!SCT: J0749
!!!YEM: Copyright 1995, estate of Helmut Schaffrath.
**kern
*ICvox
*Ivox
*M2/4
*k[f#]
*G:
{8dd
16ee
16dd
8cc
8a
=1
8dd
16ee
16dd
8cc
8a
=2
8dd
8b
8dd
8ee
=3
8e
8g
4a}
=4
{8ee
8dd
8ee
8dd
=5
8b
8ee
4dd
=6
8e
8g
4a
=7
8.cc
16a
8g
8b
=8
8a
8e
4d}
==
!!!AGN: Xiaodiao. XÅshi, Xinminge
!!!ONB: ESAC (Essen Associative Code) Database: CHINA
!!!AMT: simple duple
!!!AIN: vox
!!!EED: Helmut Schaffrath
!!!EEV: 1.0
*-
